X: 17690
T: Hollywood
R: jig
M: 6/8
K: Gmajor
G2A BGG|AGA GED|G2A BGB|dge dBA|G2A BGG|
AGA GED|GAB deg|gag _bag:|
g2e d=Bg|gG A/B/d|g2e dBa|aag _bag|g2e d=Bg|
g2e dBA|GAB deg|gag_bag:|

